src/assets/duotone/TextItalic.svg

<svg width="24" height="24" viewBox="0 0 24 24"  xmlns="http://www.w3.org/2000/svg">
<path opacity="0.4" d="M22 7.81V16.19C22 19.83 19.83 22 16.19 22H7.81C7.61 22 7.41 21.99 7.22 21.98C5.99 21.9 4.95 21.55 4.13 20.95C3.71 20.66 3.34 20.29 3.05 19.87C2.36 18.92 2 17.68 2 16.19V7.81C2 4.37 3.94 2.24 7.22 2.03C7.41 2.01 7.61 2 7.81 2H16.19C17.68 2 18.92 2.36 19.87 3.05C20.29 3.34 20.66 3.71 20.95 4.13C21.64 5.08 22 6.32 22 7.81Z" />
<path d="M15.8701 6.01001H10.4901C10.0801 6.01001 9.74014 6.35001 9.74014 6.76001C9.74014 7.17001 10.0801 7.51001 10.4901 7.51001H12.3801L10.1401 16.48H8.14014C7.73014 16.48 7.39014 16.82 7.39014 17.23C7.39014 17.64 7.73014 17.98 8.14014 17.98H13.5201C13.9301 17.98 14.2701 17.64 14.2701 17.23C14.2701 16.82 13.9301 16.48 13.5201 16.48H11.6801L13.9201 7.51001H15.8701C16.2801 7.51001 16.6201 7.17001 16.6201 6.76001C16.6201 6.35001 16.2801 6.01001 15.8701 6.01001Z" />
</svg>

<?xml version="1.0" encoding="UTF-8"?>
<svg width="24" height="24" viewBox="0 0 24 24" xmlns="http://www.w3.org/2000/svg">
 <path d="m22 7.81v8.38c0 3.64-2.17 5.81-5.81 5.81h-8.38c-0.2 0-0.4-0.01-0.59-0.02-1.23-0.08-2.27-0.43-3.09-1.03-0.42-0.29-0.79-0.66-1.08-1.08-0.69-0.95-1.05-2.19-1.05-3.68v-8.38c0-3.44 1.94-5.57 5.22-5.78 0.19-0.02 0.39-0.03 0.59-0.03h8.38c1.49 0 2.73 0.36 3.68 1.05 0.42 0.29 0.79 0.66 1.08 1.08 0.69 0.95 1.05 2.19 1.05 3.68z" opacity=".4"/>
 <path d="m15.87 6.01h-5.38c-0.41 0-0.74996 0.34-0.74996 0.75s0.33996 0.75 0.74996 0.75h1.89l-2.24 8.97h-2c-0.41 0-0.75 0.34-0.75 0.75s0.34 0.75 0.75 0.75h5.38c0.41 0 0.75-0.34 0.75-0.75s-0.34-0.75-0.75-0.75h-1.84l2.24-8.97h1.95c0.41 0 0.75-0.34 0.75-0.75s-0.34-0.75-0.75-0.75z"/>
</svg>
